Modules/BetterCms.Module.Root/Scss/base_64/icons/cp-notification-ok.svg

<svg xmlns="http://www.w3.org/2000/svg" viewBox="0 0 21 21">
 <path fill="#36c629" fill-rule="evenodd" d="m10.51 21c-5.799 0-10.5-4.701-10.5-10.5 0-5.799 4.701-10.5 10.5-10.5 5.799 0 10.5 4.701 10.5 10.5 0 5.799-4.701 10.5-10.5 10.5m0-18.577c-4.461 0-8.077 3.616-8.077 8.077 0 4.461 3.616 8.077 8.077 8.077 4.461 0 8.077-3.616 8.077-8.077 0-4.461-3.616-8.077-8.077-8.077m-1.238 12.158c-.149.149-.391.149-.54 0l-.12-.12h-.001l-.127-.128-.562-.562c-.002-.002-.001-.005-.003-.007l-2.574-2.593c-.15-.149-.15-.391 0-.54l.809-.81c.15-.149.391-.149.541 0l2.31 2.327 4.856-4.856c.149-.15.391-.15.54 0l.81.809c.149.149.149.391 0 .54l-5.939 5.94"/>
</svg>

<svg xmlns="http://www.w3.org/2000/svg" preserveAspectRatio="xMidYMid" viewBox="0 0 21 21">
  <path fill="#36c629" fill-rule="evenodd" d="M10.510,21.000 C4.711,21.000 0.010,16.299 0.010,10.500 C0.010,4.701 4.711,-0.000 10.510,-0.000 C16.309,-0.000 21.010,4.701 21.010,10.500 C21.010,16.299 16.309,21.000 10.510,21.000 ZM10.510,2.423 C6.049,2.423 2.433,6.039 2.433,10.500 C2.433,14.961 6.049,18.577 10.510,18.577 C14.971,18.577 18.587,14.961 18.587,10.500 C18.587,6.039 14.971,2.423 10.510,2.423 ZM9.272,14.581 C9.123,14.730 8.881,14.730 8.732,14.581 L8.612,14.461 L8.611,14.461 L8.484,14.333 L7.922,13.771 C7.920,13.769 7.921,13.766 7.919,13.764 L5.345,11.171 C5.195,11.022 5.195,10.780 5.345,10.631 L6.154,9.821 C6.304,9.672 6.545,9.672 6.695,9.821 L9.005,12.148 L13.861,7.292 C14.010,7.142 14.252,7.142 14.401,7.292 L15.211,8.101 C15.360,8.250 15.360,8.492 15.211,8.641 L9.272,14.581 Z"/>
</svg>
